X:70
T: ES WOLLT EIN MAEDCHEN BRECHEN GEHN
N: Z0071
O: Europa, Mitteleuropa, Deutschland
R: Sagen - Lied, Romanze
M: 2/4
L: 1/8
K: F
C | FFFF | AFF
F | cFFF | G2F
C | FFFF | AFF
F | cFFF | G2F
F | BBBB | dBB
B | BGGG | c2C
C | FFFF | AFF
F | fFFF | G2F

@@@ Tune index: 9828
